X:7
T:Green Groves of Erin
M:4/4
L:1/8
R: reel
O:Trad. (9.9.2014/NS)
K:Am
|: "Am" A2BA eABA | "G"  G2Bd gedB    | "Am" A2BA eABA  | "G" BGEF GABG   | 
   "Am" A2BA eABA | "G"  G2Bd gedB    | "Am" A2BA eABA  | [1 "G" BGEF GABG [2 "G" BGEF GABd  :| 
|: "Am" eaag eaag | "Em" eggg eggg    | "F"  eaag eaag  | "Em" edef ged2  |
   "Am" eaag bgag | "G"  egfa (3gggge | "F"  dega bgag  | "Em" egfa gedB :|
